X:52
T:Alma deres a lovam
M:4/4
L:1/4
K:D
DDGG | ABA2 | AB G<E | D2 D z |
DDGG | ABA2 | AB G<E | D2 D z |
d>d B<e | d2 A2 | ddBG | A2 E2 |
DDGG | ABA2 | AB G<E | D2 D z |

